assets/svg/meditation-yoga_03.svg

<svg width="356" height="356" fill="none" xmlns="http://www.w3.org/2000/svg"><g clip-path="url(#clip0)" fill="#0E384A"><path d="M138.027 296.547c1.036-2.684 1.894-6.324 1.894-11.063 0-19.885-4.738-37.518-6.775-44.176a52.122 52.122 0 01-.311-1.111l-.172-.635c-.22-.787-1.625-5.148-2.814-8.779v-.002c-1.51-4.33-3.07-8.809-4.142-13.65l-.041-.182c-1.505-6.539-6.444-30.416-6.791-63.154l-.001-.053v-.054c0-4.109 1.534-7.485 3.279-10.077.817-12.611 2.729-25.902 5.721-39.822-22.609-27.264-42.699-45.102-42.699-45.102S71.373 152.035 96.84 222.005c12.763 35.063 27.113 59.723 41.187 74.542zM177.808 0s-34.344 63.494-42.955 129.234c.818-.896 1.669-1.832 2.553-2.811 3.234-3.578 6.659-6.686 9.971-9.691l.071-.064c3.579-3.242 7.28-6.596 10.097-10.096 3.537-4.403 7.023-12.635 6.49-18.233-.404-4.143.805-8.001 3.403-10.862a12.678 12.678 0 019.368-4.146h2.004c3.561 0 6.973 1.509 9.363 4.14 2.596 2.854 3.808 6.707 3.412 10.848-.537 5.621 2.949 13.85 6.487 18.252 2.812 3.496 6.515 6.854 10.114 10.114 3.33 3.021 6.773 6.144 10.025 9.742.883.977 1.731 1.911 2.551 2.808C212.151 63.494 177.808 0 177.808 0z"/><path d="M126.454 303.732l.287-.041c.761-.105 1.52-.215 2.279-.328a117.658 117.658 0 01-4.553-5.197c-14.085-17.072-26.933-41.402-38.186-72.318-7.537-20.709-12.443-44.857-14.678-72.102-25.458-31.82-42.843-57.293-42.843-57.293s-5.956 110.414 30.902 175.113c10.526 18.475 20.991 33.531 31.075 45.336 5.5-5.65 14.751-10.672 30.269-12.363 2.259-.348 4.007-.598 5.448-.807z"/><path d="M233.314 314.457a523.127 523.127 0 00-5.82-.861c-4.638-.656-5.883-.83-11.305-2.522-2.135-.666-10.492-9.094-10.492-25.59 0-21.252 5.047-40.021 7.213-47.102.059-.186.199-.723.396-1.445.359-1.328 2.989-9.357 2.989-9.357 1.426-4.086 2.901-8.311 3.86-12.652l.051-.223c1.449-6.283 6.201-29.258 6.537-61.033 0-3.206-2.666-5.996-4.256-7.662-.293-.306-.551-.574-.744-.799-1.532-1.783-3.551-3.983-5.887-6.529-1.54-1.68-3.237-3.529-5.064-5.553-2.922-3.232-6.182-6.189-9.336-9.05-3.877-3.513-7.883-7.147-11.176-11.244-4.922-6.122-9.473-16.833-8.648-25.468.125-1.3-.181-2.428-.855-3.17a2.656 2.656 0 00-1.965-.866c-.336 0-.676.063-1.001.191a2.75 2.75 0 00-1.003-.19c-.733 0-1.449.3-1.964.865-.674.742-.982 1.87-.855 3.17.822 8.635-3.729 19.346-8.648 25.468-3.295 4.097-7.3 7.731-11.178 11.244-3.152 2.86-6.415 5.817-9.337 9.05-1.826 2.023-3.523 3.873-5.063 5.553-2.336 2.547-4.353 4.746-5.887 6.529-.193.225-.449.493-.742.799-1.59 1.666-4.258 4.456-4.258 7.679.338 31.759 5.09 54.733 6.537 61.017l.051.223c.96 4.342 2.436 8.566 3.86 12.652 0 0 2.63 8.029 2.989 9.357.197.723.338 1.26.396 1.445 2.166 7.08 7.213 25.85 7.213 47.102 0 16.496-8.357 24.924-10.492 25.59-5.42 1.691-6.665 1.865-11.306 2.522-1.509.217-3.361.482-5.818.861-26.622 2.83-29.497 16.047-29.497 21.602 0 1.486.77 6.322 4.285 10.777 3.156 4.008 9.447 8.781 21.484 8.781 1.807 0 3.717-.105 5.68-.318 8.012-.863 16.086-2.154 23.895-3.402 2.836-.457 5.666-.91 8.502-1.346 3.777-.58 10.588-.963 20.237-1.139.451-.006.765-.016.918-.022.153.006.467.016.917.022 9.65.176 16.459.559 20.236 1.139 2.836.435 5.668.889 8.502 1.346 7.809 1.248 15.885 2.539 23.895 3.402 1.963.213 3.873.318 5.68.318 12.04 0 18.33-4.773 21.486-8.781 3.516-4.453 4.283-9.291 4.283-10.777.001-5.556-2.872-18.773-29.495-21.603zM191.89 206.256a2.65 2.65 0 01-1.154-.268c-1.238-.494-2.827-2.861-2.975-3.777 6.168-4.293 10.336-12.445 10.336-21.805 0-13.816-1.458-25.018-20.287-25.018s-20.287 11.201-20.287 25.018c0 9.359 4.168 17.512 10.336 21.803-.146.916-1.771 3.17-2.975 3.779-.379.18-.756.268-1.154.268-3.963 0-8.934-8.684-10.237-12.137-2.225-5.871-4.997-15.963-5.595-30.688l-.023-.564c-.15-3.104 4.521-11.035 5.139-12.393.853-1.868 11.889-18.693 15.166-22.678 1.16-1.41 7.041-9.215 9.632-12.661 2.591 3.446 8.47 11.251 9.628 12.661 3.281 3.984 14.314 20.81 15.168 22.678.618 1.357 5.289 9.289 5.141 12.393l-.025.564c-.596 14.725-3.371 24.816-5.596 30.688-1.305 3.453-6.273 12.137-10.238 12.137z"/><path d="M326.855 96.453s-17.385 25.473-42.844 57.293c-2.234 27.244-7.141 51.393-14.678 72.102-11.253 30.918-24.101 55.248-38.186 72.32a118.137 118.137 0 01-4.551 5.195c.66.1 1.408.205 2.316.334l.244.035c1.442.207 3.191.459 5.449.807 15.519 1.689 24.77 6.711 30.27 12.363 10.084-11.805 20.55-26.861 31.075-45.336 36.861-64.699 30.905-175.113 30.905-175.113zm-149.046 35.255a109.46 109.46 0 01-1.907 2.44c-1.544 1.877-5.373 7.502-8.648 12.469 3.154-.818 6.676-1.229 10.556-1.229 3.88 0 7.401.41 10.556 1.229-3.276-4.969-7.107-10.594-8.65-12.469-.175-.21-.526-.637-1.907-2.44z"/><path d="M236.741 153.672v.107c-.348 32.786-5.287 56.644-6.783 63.13l-.04.178c-1.077 4.877-2.635 9.352-4.152 13.701-1.189 3.627-2.592 7.984-2.814 8.779l-.16.594c-.102.384-.209.767-.322 1.148-2.037 6.658-6.775 24.289-6.775 44.176 0 4.738.857 8.381 1.894 11.064 14.074-14.818 28.425-39.478 41.188-74.543 25.467-69.971 11.665-163.318 11.665-163.318s-20.09 17.838-42.699 45.102c2.992 13.918 4.902 27.207 5.721 39.818 1.742 2.587 3.277 5.96 3.277 10.064z"/></g><defs><clipPath id="clip0"><path fill="#fff" d="M0 0h355.617v355.617H0z"/></clipPath></defs></svg>

<svg width="356" height="356" viewBox="0 0 356 356" fill="none" xmlns="http://www.w3.org/2000/svg">
<g clip-path="url(#clip0)">
<path d="M138.027 296.547C139.063 293.863 139.921 290.223 139.921 285.484C139.921 265.599 135.183 247.966 133.146 241.308C133.038 240.939 132.935 240.569 132.835 240.197L132.663 239.562C132.443 238.775 131.038 234.414 129.849 230.783V230.781C128.339 226.451 126.779 221.972 125.707 217.131L125.666 216.949C124.161 210.41 119.222 186.533 118.875 153.795L118.874 153.742V153.688C118.874 149.579 120.408 146.203 122.153 143.611C122.97 131 124.882 117.709 127.874 103.789C105.265 76.525 85.1754 58.687 85.1754 58.687C85.1754 58.687 71.3734 152.035 96.8404 222.005C109.603 257.068 123.953 281.728 138.027 296.547V296.547ZM177.808 0C177.808 0 143.464 63.494 134.853 129.234C135.671 128.338 136.522 127.402 137.406 126.423C140.64 122.845 144.065 119.737 147.377 116.732L147.448 116.668C151.027 113.426 154.728 110.072 157.545 106.572C161.082 102.169 164.568 93.937 164.035 88.339C163.631 84.196 164.84 80.338 167.438 77.477C168.625 76.1721 170.072 75.1294 171.685 74.4155C173.298 73.7016 175.042 73.3322 176.806 73.331H178.81C182.371 73.331 185.783 74.84 188.173 77.471C190.769 80.325 191.981 84.178 191.585 88.319C191.048 93.94 194.534 102.169 198.072 106.571C200.884 110.067 204.587 113.425 208.186 116.685C211.516 119.706 214.959 122.829 218.211 126.427C219.094 127.404 219.942 128.338 220.762 129.235C212.151 63.494 177.808 0 177.808 0Z" fill="#0E384A"/>
<path d="M126.454 303.732L126.741 303.691C127.502 303.586 128.261 303.476 129.02 303.363C127.452 301.676 125.934 299.943 124.467 298.166C110.382 281.094 97.5345 256.764 86.2815 225.848C78.7445 205.139 73.8385 180.991 71.6035 153.746C46.1445 121.926 28.7595 96.4531 28.7595 96.4531C28.7595 96.4531 22.8045 206.867 59.6625 271.566C70.1875 290.041 80.6535 305.097 90.7375 316.902C96.2375 311.252 105.488 306.23 121.006 304.539C123.265 304.191 125.013 303.941 126.454 303.732V303.732Z" fill="#0E384A"/>
<path d="M233.314 314.457C231.375 314.159 229.435 313.872 227.494 313.596C222.856 312.94 221.611 312.766 216.189 311.074C214.054 310.408 205.697 301.98 205.697 285.484C205.697 264.232 210.744 245.463 212.91 238.382C212.969 238.196 213.109 237.659 213.306 236.937C213.665 235.609 216.295 227.58 216.295 227.58C217.721 223.494 219.196 219.269 220.155 214.928L220.206 214.705C221.655 208.422 226.407 185.447 226.743 153.672C226.743 150.466 224.077 147.676 222.487 146.01C222.194 145.704 221.936 145.436 221.743 145.211C220.211 143.428 218.192 141.228 215.856 138.682C214.316 137.002 212.619 135.153 210.792 133.129C207.87 129.897 204.61 126.94 201.456 124.079C197.579 120.566 193.573 116.932 190.28 112.835C185.358 106.713 180.807 96.0021 181.632 87.3671C181.757 86.0661 181.451 84.9391 180.777 84.1971C180.528 83.9236 180.224 83.7053 179.886 83.5561C179.547 83.407 179.181 83.3303 178.812 83.3311C178.476 83.3311 178.136 83.3941 177.811 83.5221C177.491 83.3963 177.151 83.3315 176.808 83.3311C176.075 83.3311 175.359 83.6311 174.844 84.1971C174.17 84.9391 173.862 86.0661 173.989 87.3671C174.811 96.0021 170.26 106.713 165.341 112.835C162.046 116.932 158.041 120.566 154.163 124.079C151.011 126.939 147.748 129.896 144.826 133.129C143 135.152 141.303 137.002 139.763 138.682C137.427 141.229 135.41 143.428 133.876 145.211C133.683 145.436 133.427 145.704 133.134 146.01C131.544 147.676 128.876 150.466 128.876 153.689C129.214 185.448 133.966 208.422 135.413 214.706L135.464 214.929C136.424 219.271 137.9 223.495 139.324 227.581C139.324 227.581 141.954 235.61 142.313 236.938C142.51 237.661 142.651 238.198 142.709 238.383C144.875 245.463 149.922 264.233 149.922 285.485C149.922 301.981 141.565 310.409 139.43 311.075C134.01 312.766 132.765 312.94 128.124 313.597C126.615 313.814 124.763 314.079 122.306 314.458C95.6836 317.288 92.8086 330.505 92.8086 336.06C92.8086 337.546 93.5786 342.382 97.0936 346.837C100.25 350.845 106.541 355.618 118.578 355.618C120.385 355.618 122.295 355.513 124.258 355.3C132.27 354.437 140.344 353.146 148.153 351.898C150.989 351.441 153.819 350.988 156.655 350.552C160.432 349.972 167.243 349.589 176.892 349.413C177.343 349.407 177.657 349.397 177.81 349.391C177.963 349.397 178.277 349.407 178.727 349.413C188.377 349.589 195.186 349.972 198.963 350.552C201.799 350.987 204.631 351.441 207.465 351.898C215.274 353.146 223.35 354.437 231.36 355.3C233.323 355.513 235.233 355.618 237.04 355.618C249.08 355.618 255.37 350.845 258.526 346.837C262.042 342.384 262.809 337.546 262.809 336.06C262.81 330.504 259.937 317.287 233.314 314.457V314.457ZM191.89 206.256C191.49 206.255 191.095 206.163 190.736 205.988C189.498 205.494 187.909 203.127 187.761 202.211C193.929 197.918 198.097 189.766 198.097 180.406C198.097 166.59 196.639 155.388 177.81 155.388C158.981 155.388 157.523 166.589 157.523 180.406C157.523 189.765 161.691 197.918 167.859 202.209C167.713 203.125 166.088 205.379 164.884 205.988C164.505 206.168 164.128 206.256 163.73 206.256C159.767 206.256 154.796 197.572 153.493 194.119C151.268 188.248 148.496 178.156 147.898 163.431L147.875 162.867C147.725 159.763 152.396 151.832 153.014 150.474C153.867 148.606 164.903 131.781 168.18 127.796C169.34 126.386 175.221 118.581 177.812 115.135C180.403 118.581 186.282 126.386 187.44 127.796C190.721 131.78 201.754 148.606 202.608 150.474C203.226 151.831 207.897 159.763 207.749 162.867L207.724 163.431C207.128 178.156 204.353 188.247 202.128 194.119C200.823 197.572 195.855 206.256 191.89 206.256V206.256Z" fill="#0E384A"/>
<path d="M326.855 96.4531C326.855 96.4531 309.47 121.926 284.011 153.746C281.777 180.99 276.87 205.139 269.333 225.848C258.08 256.766 245.232 281.096 231.147 298.168C229.681 299.944 228.163 301.676 226.596 303.363C227.256 303.463 228.004 303.568 228.912 303.697L229.156 303.732C230.598 303.939 232.347 304.191 234.605 304.539C250.124 306.228 259.375 311.25 264.875 316.902C274.959 305.097 285.425 290.041 295.95 271.566C332.811 206.867 326.855 96.4531 326.855 96.4531V96.4531ZM177.809 131.708C177.185 132.53 176.549 133.344 175.902 134.148C174.358 136.025 170.529 141.65 167.254 146.617C170.408 145.799 173.93 145.388 177.81 145.388C181.69 145.388 185.211 145.798 188.366 146.617C185.09 141.648 181.259 136.023 179.716 134.148C179.541 133.938 179.19 133.511 177.809 131.708Z" fill="#0E384A"/>
<path d="M236.741 153.672V153.779C236.393 186.565 231.454 210.423 229.958 216.909L229.918 217.087C228.841 221.964 227.283 226.439 225.766 230.788C224.577 234.415 223.174 238.772 222.952 239.567L222.792 240.161C222.69 240.545 222.583 240.928 222.47 241.309C220.433 247.967 215.695 265.598 215.695 285.485C215.695 290.223 216.552 293.866 217.589 296.549C231.663 281.731 246.014 257.071 258.777 222.006C284.244 152.035 270.442 58.688 270.442 58.688C270.442 58.688 250.352 76.526 227.743 103.79C230.735 117.708 232.645 130.997 233.464 143.608C235.206 146.195 236.741 149.568 236.741 153.672V153.672Z" fill="#0E384A"/>
</g>
<defs>
<clipPath id="clip0">
<rect width="355.617" height="355.617" fill="white"/>
</clipPath>
</defs>
</svg>
